packages/sources/icons/src/vitamix/gift.svg

<svg width="24" height="24" viewBox="0 0 24 24" fill="none" xmlns="http://www.w3.org/2000/svg">
<path fill-rule="evenodd" clip-rule="evenodd" d="M11.7587 14.3249C12.5236 14.9172 13.0744 15.5209 13.4103 16.1443C13.6067 16.5089 13.4704 16.9638 13.1057 17.1603C12.7411 17.3567 12.2862 17.2204 12.0897 16.8557C11.7412 16.2088 10.9682 15.5098 9.76867 14.7841L9.75 14.7884V19.5439L21 17.3805V12.1923L11.7587 14.3249ZM6.37513 15.5672L3 16.3461V20.842L8.25 19.8324V15.5041C7.53807 16.4353 7.02464 17.3511 6.70718 18.2498C6.56923 18.6404 6.14077 18.8451 5.75021 18.7072C5.35964 18.5692 5.15487 18.1408 5.29282 17.7502C5.55008 17.0219 5.91114 16.2944 6.37513 15.5672ZM7.20738 13.8368C3.78069 12.861 2.6703 11.2384 4.69414 9.203C5.80092 8.08994 6.99882 7.90823 7.9581 8.86752C8.05888 8.96829 8.15612 9.0816 8.25 9.20754V5.60986L3 6.61948V14.8077L7.20738 13.8368ZM11.9722 12.7372L21 10.6539V3.15795L9.75 5.32142V8.04145C9.79479 7.96978 9.84027 7.90161 9.88647 7.83693C10.7951 6.56481 12.0749 6.54097 13.2304 7.70302C14.9302 9.41244 14.3842 11.1347 11.9722 12.7372ZM22.5 11.2364C22.5001 11.246 22.5001 11.2556 22.5 11.2652V18C22.5 18.3596 22.2447 18.6686 21.8916 18.7365L2.39159 22.4865C1.92905 22.5754 1.49996 22.221 1.49996 21.75V15.7635C1.49977 15.7539 1.49977 15.7443 1.49996 15.7348V5.99998C1.49996 5.64038 1.75519 5.33138 2.10832 5.26347L21.6083 1.51347C22.0709 1.42452 22.5 1.77896 22.5 2.24998V11.2364ZM11.107 8.70877C10.6772 9.31046 10.2784 10.4824 9.93648 12.1987C12.6194 10.854 13.1741 9.77383 12.1667 8.76065C11.6364 8.22739 11.4483 8.23089 11.107 8.70877ZM6.89734 9.92821C6.60662 9.63749 6.33666 9.67844 5.7577 10.2607C4.81936 11.2044 5.27764 11.8713 7.9943 12.5081C7.66434 11.1843 7.28598 10.3168 6.89734 9.92821Z" fill="#001018"/>
</svg>

<svg width="24" height="24" fill="none" xmlns="http://www.w3.org/2000/svg"><path fill-rule="evenodd" clip-rule="evenodd" d="M11.759 14.325c.765.592 1.315 1.196 1.651 1.82a.75.75 0 0 1-1.32.71c-.349-.646-1.122-1.345-2.321-2.07l-.019.003v4.756L21 17.38v-5.189l-9.241 2.133zm-5.384 1.242L3 16.347v4.495l5.25-1.01v-4.328c-.712.931-1.225 1.847-1.543 2.746a.75.75 0 0 1-1.414-.5 10.67 10.67 0 0 1 1.082-2.183zm.832-1.73c-3.426-.976-4.537-2.599-2.513-4.634C5.801 8.09 7 7.908 7.958 8.868c.1.1.198.214.292.34V5.61L3 6.62v8.188l4.207-.971zm4.765-1.1L21 10.654V3.158L9.75 5.32v2.72c.045-.071.09-.14.136-.204.91-1.272 2.189-1.296 3.344-.134 1.7 1.71 1.154 3.432-1.258 5.034zm10.528-1.5V18a.75.75 0 0 1-.608.736l-19.5 3.75a.75.75 0 0 1-.892-.736V6a.75.75 0 0 1 .608-.737l19.5-3.75a.75.75 0 0 1 .892.737v8.986zM11.107 8.708c-.43.601-.829 1.773-1.17 3.49 2.682-1.345 3.237-2.425 2.23-3.438-.53-.534-.719-.53-1.06-.052zm-4.21 1.22c-.29-.292-.56-.25-1.14.332-.938.943-.48 1.61 2.237 2.247-.33-1.324-.708-2.191-1.097-2.58z" fill="#001018"/></svg>
